X:5331
T:Quadrille. CJF.153
O:england
M:2/4
L:1/16
Q:50
S: C.J.Fox MS, 1829/33, Beverley,E.Yorks.
R:Quadrille
A:East Yorkshire
B:Kidson Coll.Mitchell Lib.M1805
N:The notes marked  were cd in the MS, not c2d2. - PJH.
K:A
cd|f<ec2 e<dB2|d<cA2A4|(GABc) (dc)(fe)|e>dc2 ""c2d2|\
f<ec2 e<dc2|d<cA2A4|(GABc) dBAG|B4A2h||
GA|B<GE2 A<F^D2|EFGA Bc^de|fe^dc BAGF|G6F2|\
B<GE2 e<^dB2 b<ge2|c<BB<A A<FF<E|^D4" D.C."E2||


